X: 29
T:Flower Of Yarrow,The. HA.030
T:Mary Scott,The...,aka. HA.030
T:Sir John Fenwick,aka. HA.030
M:6/4
L:1/8
Q:120
C:Sir John Fenwick.Mary Scott,aka.
S:Henry Atkinson's original MS,Hartburn,N'umberland,1694.
O:England
A:Hartburn,Northumberland
N:aka Sir John Fenwick's The Flower Among Them All..CGP
H:1/8
Z:vmp.Chris Partington.Jan.2004
K:C
"No Key or Time Sigs"G4B2 d4g2|d4g2 B3AG2|\
A4B2 e4g2|e4d2 e4g2|!
G4B2 d4g2|"cr"d4g2 B3AG2|\
c2 (dc)(BA) B2(cB)(AG)|A4G2 e4d2||!
g6 g6|g6 B3AG2|A4c2 e4ga|b4a2 e4g2|!
G4B2 (dB)(dB)(dB)|d6 B3AG2|\
c2 (dc)(BA) B2(cB)(AG)|A4G2 e4d2||!
g2G2B2 g2G2B2|g2G2B2 g2G2B2|\
g2A2B2 g2A2B2 |g2A2B2 e4d2|!
g2G2B2 g2G2B2|g2G2B2 g2G2B2|\
c2 (dc)(BA) B3AG2|A4G2 e4d2|]
